src/lib/runemarks/svg/factions-chaos-bladeborn-skabbiks-plaguepack.svg

<svg xmlns="http://www.w3.org/2000/svg" width="300" height="300" viewBox="0 0 300 300"><title>factions-chaos-bladeborn-skabbiks-plaguepack-cropped</title><path d="M154.008 2.49c-17.815 11.842-16.552 9.121-16.06 34.61.391 20.288.164 22.099-3.526 28.034-2.819 4.534-3.665 7.743-2.965 11.244 1.412 7.058.041 9.325-9.55 15.805-15.94 10.767-15.893 10.705-18.555 24.615-1.362 7.119-3.645 14.728-5.075 16.908-3.138 4.789-5.297 16.172-7.368 38.837-2.323 25.43-8.773 46.237-20.04 64.646-9.258 15.126-8.973 17.457 3.048 24.877 10.893 6.724 26.49 11.05 39.968 11.088 9.205.025 18.642 6.167 18.642 12.132 0 5.711 12.84 16.644 16.966 14.445 8.603-4.585 15.22-11.067 18.183-17.816 3.338-7.599 7.884-10.376 17.096-10.444 16.202-.12 49.892-14.181 50.895-21.243.521-3.669-7.384-19.588-13.045-26.268-6.736-7.95-13.131-35.394-14.774-63.399-2.291-39.07-8.427-52.341-33.195-71.798-14.952-11.746-15.019-11.863-11.09-19.461 2.519-4.871 2.467-5.585-.885-12.296-5.232-10.475-6.248-26.335-2.591-40.435 4.136-15.947 2.484-19.774-6.08-14.081zm-36.32 137.977c4.224 7.16 4.759 7.31 28.01 7.872 18.573.449 19.073.365 21.69-3.633 7.5-11.461 14.803-13.145 17.171-3.957.739 2.866 2.472 6.149 3.852 7.295 4.494 3.729 3.044 9.814-3.219 13.508-3.936 2.323-6.076 5.046-6.838 8.703-.973 4.671-4.626 11.403-20.357 37.512-4.608 7.647-4.681 10.468-.451 17.406 4.01 6.577 4.216 10.983.746 15.936-3.229 4.61-8.387 4.788-10.75.371-2.114-3.949-7.099-4.341-10.606-.834-7.804 7.804-13.981-6.109-7.169-16.148 5.854-8.627 6.684-12.41 3.872-17.65-1.351-2.517-5.01-9.456-8.133-15.42s-6.511-12.346-7.531-14.181-2.759-5.777-3.865-8.759c-1.105-2.982-3.184-5.422-4.62-5.422-8.495 0-12.067-9.578-6.844-18.352 6.75-11.341 10.269-12.334 15.041-4.245zm14.301 23.69c-2.296 2.297-1.016 8.311 3.04 14.28 2.294 3.376 4.171 6.812 4.171 7.637 0 1.627 5.467 7.02 7.116 7.02.558 0 4.536-5.25 8.842-11.667 9.633-14.358 8.747-16.885-5.738-16.366-5.162.185-10.942-.197-12.843-.849s-3.967-.677-4.588-.056z"/></svg>

<?xml version="1.0" encoding="UTF-8" standalone="no"?>
<!DOCTYPE svg PUBLIC "-//W3C//DTD SVG 1.1//EN" "http://www.w3.org/Graphics/SVG/1.1/DTD/svg11.dtd">
<svg width="100%" height="100%" viewBox="0 0 300 300" version="1.1" xmlns="http://www.w3.org/2000/svg" xmlns:xlink="http://www.w3.org/1999/xlink" xml:space="preserve" xmlns:serif="http://www.serif.com/" style="fill-rule:evenodd;clip-rule:evenodd;stroke-linejoin:round;stroke-miterlimit:2;">
    <path d="M154.008,2.49C136.193,14.332 137.456,11.611 137.948,37.1C138.339,57.388 138.112,59.199 134.422,65.134C131.603,69.668 130.757,72.877 131.457,76.378C132.869,83.436 131.498,85.703 121.907,92.183C105.967,102.95 106.014,102.888 103.352,116.798C101.99,123.917 99.707,131.526 98.277,133.706C95.139,138.495 92.98,149.878 90.909,172.543C88.586,197.973 82.136,218.78 70.869,237.189C61.611,252.315 61.896,254.646 73.917,262.066C84.81,268.79 100.407,273.116 113.885,273.154C123.09,273.179 132.527,279.321 132.527,285.286C132.527,290.997 145.367,301.93 149.493,299.731C158.096,295.146 164.713,288.664 167.676,281.915C171.014,274.316 175.56,271.539 184.772,271.471C200.974,271.351 234.664,257.29 235.667,250.228C236.188,246.559 228.283,230.64 222.622,223.96C215.886,216.01 209.491,188.566 207.848,160.561C205.557,121.491 199.421,108.22 174.653,88.763C159.701,77.017 159.634,76.9 163.563,69.302C166.082,64.431 166.03,63.717 162.678,57.006C157.446,46.531 156.43,30.671 160.087,16.571C164.223,0.624 162.571,-3.203 154.007,2.49L154.008,2.49ZM117.688,140.467C121.912,147.627 122.447,147.777 145.698,148.339C164.271,148.788 164.771,148.704 167.388,144.706C174.888,133.245 182.191,131.561 184.559,140.749C185.298,143.615 187.031,146.898 188.411,148.044C192.905,151.773 191.455,157.858 185.192,161.552C181.256,163.875 179.116,166.598 178.354,170.255C177.381,174.926 173.728,181.658 157.997,207.767C153.389,215.414 153.316,218.235 157.546,225.173C161.556,231.75 161.762,236.156 158.292,241.109C155.063,245.719 149.905,245.897 147.542,241.48C145.428,237.531 140.443,237.139 136.936,240.646C129.132,248.45 122.955,234.537 129.767,224.498C135.621,215.871 136.451,212.088 133.639,206.848C132.288,204.331 128.629,197.392 125.506,191.428C122.383,185.464 118.995,179.082 117.975,177.247C116.955,175.412 115.216,171.47 114.11,168.488C113.005,165.506 110.926,163.066 109.49,163.066C100.995,163.066 97.423,153.488 102.646,144.714C109.396,133.373 112.915,132.38 117.687,140.469L117.688,140.467ZM131.989,164.157C129.693,166.454 130.973,172.468 135.029,178.437C137.323,181.813 139.2,185.249 139.2,186.074C139.2,187.701 144.667,193.094 146.316,193.094C146.874,193.094 150.852,187.844 155.158,181.427C164.791,167.069 163.905,164.542 149.42,165.061C144.258,165.246 138.478,164.864 136.577,164.212C134.676,163.56 132.61,163.535 131.989,164.156L131.989,164.157Z" style="fill-rule:nonzero;"/>
</svg>
